imgs/altlogo_black_tilt.svg

<svg height="110" viewBox="0 0 113 110" width="113" xmlns="http://www.w3.org/2000/svg" xmlns:xlink="http://www.w3.org/1999/xlink"><defs><path id="a" d="m12.6339045 1.61328179h16.6198107l12.3019187 64.89835901h-13.4424939l-2.1996809-13.7007647h-9.6948896l-2.2811505 13.7007647h-13.76837257zm11.8945704 42.62460121-3.5031954-25.3183721-3.5031954 25.3183721zm15.6946755-41.53712745 14.3388744-2.65755328 10.060069 54.27927543 14.8996125-2.76148 1.7667175 9.5323546-29.2384868 5.4190332z"/><path id="b" d="m88.0204968 12.2694321h-10.1022379v-10.65615031h34.7875451v10.65615031h-10.020768v54.2422087h-14.6645392z"/><path id="c" d="m.13222327 110.547042v-7.908557h32.56528583v-8.2178306h5.7190124v16.1263876zm0-24.6093091v-9.0131041l38.28429823-6.6714642v7.2900106l-8.0822407 1.1929108v5.2576441l8.0822407 1.2370927v7.4667382zm25.14474893-6.4505549v3.799642l-14.9356027-1.899821z"/><path id="d" d="m0 0h16.4939044c6.305758 0 11.2434573 1.21970261 14.8132459 3.65914443 3.5697887 2.43944181 5.3546562 7.06296567 5.3546562 13.87071027 0 8.3394871-3.1007188 13.133202-9.3022494 14.3812886 3.7521866.5105808 6.5662843 2.2124914 8.4423776 5.1057829 1.8760933 2.8932914 2.8141259 6.8644162 2.8141259 11.9134935 0 13.3318331-6.3838328 19.9976497-19.15169 19.9976497h-19.4643706zm16.7284149 27.5712278c2.9704811 0 4.9898568-.7374946 6.0581877-2.212506 1.0683309-1.4750113 1.6024883-3.7725906 1.6024883-6.8928069 0-2.7230978-.677468-4.7795732-2.0324242-6.1694877-1.3549563-1.3899145-3.3352473-2.0848614-5.9409324-2.0848614h-2.4232751v17.359662zm.2345105 30.7197939c2.9704811 0 5.0680261-.8084076 6.2926981-2.4252469 1.2246721-1.6168394 1.8369989-4.1555227 1.8369989-7.6161262 0-3.9144531-.6123268-6.6658753-1.8369989-8.2543491-1.224672-1.5884737-3.3482735-2.3826987-6.3708683-2.3826987h-2.892296v20.6784209z"/></defs><g fill-rule="evenodd"><use xlink:href="#a"/><use xlink:href="#a"/><use xlink:href="#b"/><use xlink:href="#b"/><g transform="matrix(0 1 -1 0 111 71)"><use xlink:href="#c"/><use xlink:href="#c"/><use xlink:href="#d"/><use xlink:href="#d"/></g></g></svg>

<?xml version="1.0" encoding="UTF-8"?>
<svg width="113px" height="110px" viewBox="0 0 113 110" version="1.1" xmlns="http://www.w3.org/2000/svg" xmlns:xlink="http://www.w3.org/1999/xlink">
    <!-- Generator: Sketch 51.2 (57519) - http://www.bohemiancoding.com/sketch -->
    <title>altlogo_black copy 2</title>
    <desc>Created with Sketch.</desc>
    <defs>
        <path d="M12.6339045,1.61328179 L29.2537152,1.61328179 L41.5556339,66.5116408 L28.11314,66.5116408 L25.9134591,52.8108761 L16.2185695,52.8108761 L13.937419,66.5116408 L0.16904643,66.5116408 L12.6339045,1.61328179 Z M24.5284749,44.237883 L21.0252795,18.9195109 L17.5220841,44.237883 L24.5284749,44.237883 Z M40.2231504,2.70075555 L54.5620248,0.0432022694 L64.6220938,54.3224777 L79.5217063,51.5609977 L81.2884238,61.0933523 L52.049937,66.5123855 L40.2231504,2.70075555 Z" id="path-1"></path>
        <polygon id="path-2" points="88.0204968 12.2694321 77.9182589 12.2694321 77.9182589 1.61328179 112.705804 1.61328179 112.705804 12.2694321 102.685036 12.2694321 102.685036 66.5116408 88.0204968 66.5116408"></polygon>
        <path d="M0.132223266,110.547042 L0.132223266,102.638485 L32.6975091,102.638485 L32.6975091,94.4206544 L38.4165215,94.4206544 L38.4165215,110.547042 L0.132223266,110.547042 Z M0.132223266,85.9377329 L0.132223266,76.9246288 L38.4165215,70.2531646 L38.4165215,77.5431752 L30.3342808,78.736086 L30.3342808,83.9937301 L38.4165215,85.2308228 L38.4165215,92.697561 L0.132223266,85.9377329 Z M25.2769722,79.487178 L25.2769722,83.28682 L10.3413695,81.386999 L25.2769722,79.487178 Z" id="path-3"></path>
        <path d="M-2.13162821e-14,0 L16.4939044,0 C22.7996624,0 27.7373617,1.21970261 31.3071503,3.65914443 C34.876939,6.09858624 36.6618065,10.7221101 36.6618065,17.5298547 C36.6618065,25.8693418 33.5610877,30.6630567 27.3595571,31.9111433 C31.1117437,32.4217241 33.9258414,34.1236347 35.8019347,37.0169262 C37.678028,39.9102176 38.6160606,43.8813424 38.6160606,48.9304197 C38.6160606,62.2622528 32.2322278,68.9280694 19.4643706,68.9280694 L-2.13162821e-14,68.9280694 L-2.13162821e-14,0 Z M16.7284149,27.5712278 C19.698896,27.5712278 21.7182717,26.8337332 22.7866026,25.3587218 C23.8549335,23.8837105 24.3890909,21.5861312 24.3890909,18.4659149 C24.3890909,15.7428171 23.7116229,13.6863417 22.3566667,12.2964272 C21.0017104,10.9065127 19.0214194,10.2115658 16.4157343,10.2115658 L13.9924592,10.2115658 L13.9924592,27.5712278 L16.7284149,27.5712278 Z M16.9629254,58.2910217 C19.9334065,58.2910217 22.0309515,57.4826141 23.2556235,55.8657748 C24.4802956,54.2489354 25.0926224,51.7102521 25.0926224,48.2496486 C25.0926224,44.3351955 24.4802956,41.5837733 23.2556235,39.9952995 C22.0309515,38.4068258 19.90735,37.6126008 16.8847552,37.6126008 L13.9924592,37.6126008 L13.9924592,58.2910217 L16.9629254,58.2910217 Z" id="path-4"></path>
    </defs>
    <g id="Page-1" stroke="none" stroke-width="1" fill="none" fill-rule="evenodd">
        <g id="altlogo_black-copy-2" fill="#000000">
            <g id="ALT">
                <g id="AL">
                    <use xlink:href="#path-1"></use>
                    <use xlink:href="#path-1"></use>
                </g>
                <g id="T">
                    <use xlink:href="#path-2"></use>
                    <use xlink:href="#path-2"></use>
                </g>
            </g>
            <g id="LAB-Copy-Copy" transform="translate(55.500000, 90.500000) rotate(-270.000000) translate(-55.500000, -90.500000) translate(36.000000, 35.000000)">
                <g id="LA">
                    <use xlink:href="#path-3"></use>
                    <use xlink:href="#path-3"></use>
                </g>
                <g id="B">
                    <use xlink:href="#path-4"></use>
                    <use xlink:href="#path-4"></use>
                </g>
            </g>
        </g>
    </g>
</svg>
